img/logo-sial.svg

<?xml version="1.0" encoding="UTF-8"?>
<svg width="105px" height="46px" viewBox="0 0 105 46" version="1.1" xmlns="http://www.w3.org/2000/svg" xmlns:xlink="http://www.w3.org/1999/xlink">
    <!-- Generator: sketchtool 58 (101010) - https://sketch.com -->
    <title>87C0764D-EF1B-47F0-8E6E-6295BF2FAB29</title>
    <desc>Created with sketchtool.</desc>
    <defs>
        <polygon id="path-1" points="0 44.8913043 104.90337 44.8913043 104.90337 0.150271739 0 0.150271739"></polygon>
    </defs>
    <g id="LOT-1" stroke="none" stroke-width="1" fill="none" fill-rule="evenodd">
        <g id="HOMEPAGE-T1_V1" transform="translate(-40.000000, -28.000000)">
            <g id="HEADER" transform="translate(-1.000000, -2.000000)">
                <g id="04-Organisms/Header">
                    <g id="MENU">
                        <g id="01-Electrons/LogoNoir" transform="translate(41.000000, 29.000000)">
                            <g id="Group-25" transform="translate(0.000000, 1.000000)">
                                <polygon id="Fill-1" fill="#000000" points="0.937771739 44.9365761 2.38836957 44.9365761 2.38836957 39.3559783 0.937771739 39.3559783"></polygon>
                                <polygon id="Fill-2" fill="#000000" points="7.9023913 39.3559402 7.9023913 42.7680598 7.88717391 42.7680598 5.22983696 39.3559402 3.77923913 39.3559402 3.77923913 44.936538 5.22983696 44.936538 5.22983696 41.5171902 5.24505435 41.5171902 7.9023913 44.936538 9.35222826 44.936538 9.35222826 39.3559402"></polygon>
                                <g id="Group-24" transform="translate(0.000000, 0.230163)">
                                    <path d="M13.8085272,40.5612717 C13.5422228,40.3390978 13.2017337,40.1914891 12.8464076,40.1914891 C12.5797228,40.1914891 12.2247772,40.3467065 12.2247772,40.6579022 C12.2247772,40.9831739 12.6170054,41.1090978 12.8684728,41.1905109 L13.2386359,41.3015978 C14.0158641,41.531 14.6154293,41.9232283 14.6154293,42.826 C14.6154293,43.3814348 14.4818967,43.9513261 14.0379293,44.328337 C13.6011902,44.6985 13.016462,44.8540978 12.4541793,44.8540978 C11.7511359,44.8540978 11.0625489,44.617087 10.4926576,44.2176304 L11.1146685,43.0481739 C11.4772228,43.3665978 11.9063533,43.6256739 12.4024402,43.6256739 C12.7429293,43.6256739 13.1054837,43.4552391 13.1054837,43.0630109 C13.1054837,42.6559457 12.5355924,42.5151848 12.2247772,42.4265435 C11.3143967,42.1674674 10.7148315,41.9304565 10.7148315,40.8500217 C10.7148315,39.7178478 11.5217337,38.9775217 12.6390707,38.9775217 C13.2017337,38.9775217 13.8899402,39.1551848 14.3856467,39.4363261 L13.8085272,40.5612717 Z" id="Fill-3" fill="#000000"></path>
                                    <path d="M17.1986196,41.6864076 L17.4428587,41.6864076 C17.9682391,41.6864076 18.4863913,41.6864076 18.4863913,41.0058098 C18.4863913,40.3023859 18.0051413,40.2951576 17.4428587,40.2951576 L17.1986196,40.2951576 L17.1986196,41.6864076 Z M15.7480217,39.1257011 L17.9682391,39.1257011 C19.1673696,39.1257011 19.996337,39.6807554 19.996337,40.9609185 C19.996337,42.2783641 19.2856848,42.8558641 18.0199783,42.8558641 L17.1986196,42.8558641 L17.1986196,44.7062989 L15.7480217,44.7062989 L15.7480217,39.1257011 Z" id="Fill-5" fill="#000000"></path>
                                    <mask id="mask-2" fill="white">
                                        <use xlink:href="#path-1"></use>
                                    </mask>
                                    <g id="Clip-8"></g>
                                    <polygon id="Fill-7" fill="#000000" mask="url(#mask-2)" points="21.0844565 44.706413 22.5350543 44.706413 22.5350543 39.1258152 21.0844565 39.1258152"></polygon>
                                    <path d="M25.3772446,41.6271359 L25.5180054,41.6271359 C25.9916467,41.6271359 26.5246359,41.5384946 26.5246359,40.9313207 C26.5246359,40.3245272 25.9916467,40.2358859 25.5180054,40.2358859 L25.3772446,40.2358859 L25.3772446,41.6271359 Z M28.5671902,44.706375 L26.7612663,44.706375 L25.3920815,42.5595815 L25.3772446,42.5595815 L25.3772446,44.706375 L23.9266467,44.706375 L23.9266467,39.1257772 L26.095125,39.1257772 C27.1980054,39.1257772 28.0345815,39.6507772 28.0345815,40.8426793 C28.0345815,41.6126793 27.6050707,42.2784402 26.8130054,42.4192011 L28.5671902,44.706375 Z" id="Fill-9" fill="#000000" mask="url(#mask-2)"></path>
                                    <polygon id="Fill-10" fill="#000000" mask="url(#mask-2)" points="30.8543261 40.354125 30.8543261 41.2865707 32.4898152 41.2865707 32.4898152 42.515375 30.8543261 42.515375 30.8543261 43.4774946 32.578837 43.4774946 32.578837 44.7062989 29.4037283 44.7062989 29.4037283 39.1257011 32.578837 39.1257011 32.578837 40.354125"></polygon>
                                    <polygon id="Fill-11" fill="#000000" mask="url(#mask-2)" points="38.3517826 40.354125 38.3517826 41.2865707 39.9431413 41.2865707 39.9431413 42.515375 38.3517826 42.515375 38.3517826 44.7062989 36.9011848 44.7062989 36.9011848 39.1257011 40.1059674 39.1257011 40.1059674 40.354125"></polygon>
                                    <path d="M42.5856033,41.8195978 C42.5856033,42.7817174 43.2962554,43.4847609 44.162125,43.4847609 C45.0279946,43.4847609 45.7386467,42.7817174 45.7386467,41.8195978 C45.7386467,41.0499783 45.0279946,40.3469348 44.162125,40.3469348 C43.2962554,40.3469348 42.5856033,41.0499783 42.5856033,41.8195978 M47.248212,41.8123696 C47.248212,43.6182935 45.953212,44.8912283 44.162125,44.8912283 C42.371038,44.8912283 41.0756576,43.6182935 41.0756576,41.8123696 C41.0756576,40.1247609 42.5559293,38.9404674 44.162125,38.9404674 C45.7683207,38.9404674 47.248212,40.1247609 47.248212,41.8123696" id="Fill-12" fill="#000000" mask="url(#mask-2)"></path>
                                    <path d="M49.5948478,41.8195978 C49.5948478,42.7817174 50.3055,43.4847609 51.1713696,43.4847609 C52.0372391,43.4847609 52.7475109,42.7817174 52.7475109,41.8195978 C52.7475109,41.0499783 52.0372391,40.3469348 51.1713696,40.3469348 C50.3055,40.3469348 49.5948478,41.0499783 49.5948478,41.8195978 M54.2574565,41.8123696 C54.2574565,43.6182935 52.9624565,44.8912283 51.1713696,44.8912283 C49.3802826,44.8912283 48.0849022,43.6182935 48.0849022,41.8123696 C48.0849022,40.1247609 49.5651739,38.9404674 51.1713696,38.9404674 C52.7775652,38.9404674 54.2574565,40.1247609 54.2574565,41.8123696" id="Fill-13" fill="#000000" mask="url(#mask-2)"></path>
                                    <path d="M56.8262663,43.4774946 L57.1511576,43.4774946 C58.017788,43.4774946 58.7573533,43.0038533 58.7573533,41.9158098 C58.7573533,40.9164076 58.0992011,40.354125 57.166375,40.354125 L56.8262663,40.354125 L56.8262663,43.4774946 Z M55.375288,39.1257011 L57.4330598,39.1257011 C58.9871359,39.1257011 60.2676793,40.3468967 60.2676793,41.9158098 C60.2676793,43.4847228 58.9795272,44.7062989 57.4330598,44.7062989 L55.375288,44.7062989 L55.375288,39.1257011 Z" id="Fill-14" fill="#000000" mask="url(#mask-2)"></path>
                                    <path d="M65.8188696,43.596 L66.0033804,43.596 C66.4328913,43.596 67.1583804,43.6180652 67.1583804,43.0040435 C67.1583804,42.3302935 66.4405,42.3968696 65.9668587,42.3968696 L65.8188696,42.3968696 L65.8188696,43.596 Z M65.8188696,41.3164348 L65.9820761,41.3164348 C66.3663152,41.3164348 66.7657717,41.2498587 66.7657717,40.775837 C66.7657717,40.2656739 66.3149565,40.236 65.9219674,40.236 L65.8188696,40.236 L65.8188696,41.3164348 Z M64.3682717,44.7061087 L64.3682717,39.1258913 L66.4405,39.1258913 C67.4322935,39.1258913 68.0980543,39.5105109 68.0980543,40.5761087 C68.0980543,41.0794239 67.9352283,41.4864891 67.484413,41.7162717 L67.484413,41.7307283 C68.2837065,41.834587 68.6241957,42.3748043 68.6241957,43.1520326 C68.6241957,44.3214891 67.6247935,44.7061087 66.6033261,44.7061087 L64.3682717,44.7061087 Z" id="Fill-15" fill="#000000" mask="url(#mask-2)"></path>
                                    <path d="M74.6635978,39.1257011 L74.6635978,42.2635272 C74.6635978,42.981788 74.6339239,43.6920598 74.0788696,44.2326576 C73.6124565,44.691462 72.8797391,44.8539076 72.2284348,44.8539076 C71.5771304,44.8539076 70.844413,44.691462 70.3783804,44.2326576 C69.8233261,43.6920598 69.7932717,42.981788 69.7932717,42.2635272 L69.7932717,39.1257011 L71.24425,39.1257011 L71.24425,42.0637989 C71.24425,42.789288 71.2959891,43.5813533 72.2284348,43.5813533 C73.1612609,43.5813533 73.2126196,42.789288 73.2126196,42.0637989 L73.2126196,39.1257011 L74.6635978,39.1257011 Z" id="Fill-16" fill="#000000" mask="url(#mask-2)"></path>
                                    <path d="M79.0895,40.5612717 C78.8231957,40.3390978 78.4827065,40.1914891 78.1273804,40.1914891 C77.8610761,40.1914891 77.50575,40.3467065 77.50575,40.6579022 C77.50575,40.9831739 77.8979783,41.1090978 78.1498261,41.1905109 L78.5196087,41.3015978 C79.296837,41.531 79.8964022,41.9232283 79.8964022,42.826 C79.8964022,43.3814348 79.76325,43.9513261 79.3189022,44.328337 C78.8825435,44.6985 78.2974348,44.8540978 77.7351522,44.8540978 C77.0321087,44.8540978 76.3439022,44.617087 75.7740109,44.2176304 L76.3956413,43.0481739 C76.7581957,43.3665978 77.1877065,43.6256739 77.683413,43.6256739 C78.0235217,43.6256739 78.3864565,43.4552391 78.3864565,43.0630109 C78.3864565,42.6559457 77.8165652,42.5151848 77.50575,42.4265435 C76.5953696,42.1674674 75.9958043,41.9304565 75.9958043,40.8500217 C75.9958043,39.7178478 76.8027065,38.9775217 77.9200435,38.9775217 C78.4827065,38.9775217 79.1712935,39.1551848 79.667,39.4363261 L79.0895,40.5612717 Z" id="Fill-17" fill="#000000" mask="url(#mask-2)"></path>
                                    <polygon id="Fill-18" fill="#000000" mask="url(#mask-2)" points="81.0291848 44.706413 82.4797826 44.706413 82.4797826 39.1258152 81.0291848 39.1258152"></polygon>
                                    <polygon id="Fill-19" fill="#000000" mask="url(#mask-2)" points="83.8709565 39.1257011 85.3215543 39.1257011 87.9788913 42.5374402 87.9937283 42.5374402 87.9937283 39.1257011 89.4439457 39.1257011 89.4439457 44.7062989 87.9937283 44.7062989 85.3367717 41.2865707 85.3215543 41.2865707 85.3215543 44.7062989 83.8709565 44.7062989"></polygon>
                                    <polygon id="Fill-20" fill="#000000" mask="url(#mask-2)" points="92.2865543 40.354125 92.2865543 41.2865707 93.9224239 41.2865707 93.9224239 42.515375 92.2865543 42.515375 92.2865543 43.4774946 94.0110652 43.4774946 94.0110652 44.7062989 90.8359565 44.7062989 90.8359565 39.1257011 94.0110652 39.1257011 94.0110652 40.354125"></polygon>
                                    <path d="M98.41475,40.5612717 C98.1480652,40.3390978 97.8079565,40.1914891 97.4530109,40.1914891 C97.1863261,40.1914891 96.831,40.3467065 96.831,40.6579022 C96.831,40.9831739 97.2232283,41.1090978 97.4746957,41.1905109 L97.8448587,41.3015978 C98.6217065,41.531 99.2216522,41.9232283 99.2216522,42.826 C99.2216522,43.3814348 99.0885,43.9513261 98.6445326,44.328337 C98.207413,44.6985 97.6226848,44.8540978 97.0604022,44.8540978 C96.3573587,44.8540978 95.6687717,44.617087 95.0988804,44.2176304 L95.7208913,43.0481739 C96.0830652,43.3665978 96.5125761,43.6256739 97.008663,43.6256739 C97.3487717,43.6256739 97.7117065,43.4552391 97.7117065,43.0630109 C97.7117065,42.6559457 97.1418152,42.5151848 96.831,42.4265435 C95.9206196,42.1674674 95.3206739,41.9304565 95.3206739,40.8500217 C95.3206739,39.7178478 96.1275761,38.9775217 97.2456739,38.9775217 C97.8079565,38.9775217 98.4965435,39.1551848 98.99225,39.4363261 L98.41475,40.5612717 Z" id="Fill-21" fill="#000000" mask="url(#mask-2)"></path>
                                    <path d="M103.41838,40.5612717 C103.152076,40.3390978 102.811207,40.1914891 102.45588,40.1914891 C102.189576,40.1914891 101.83463,40.3467065 101.83463,40.6579022 C101.83463,40.9831739 102.226859,41.1090978 102.478326,41.1905109 L102.848109,41.3015978 C103.625717,41.531 104.224902,41.9232283 104.224902,42.826 C104.224902,43.3814348 104.09175,43.9513261 103.647402,44.328337 C103.211043,44.6985 102.626315,44.8540978 102.063652,44.8540978 C101.360609,44.8540978 100.672402,44.617087 100.102511,44.2176304 L100.724141,43.0481739 C101.087076,43.3665978 101.516207,43.6256739 102.011913,43.6256739 C102.352402,43.6256739 102.715337,43.4552391 102.715337,43.0630109 C102.715337,42.6559457 102.145446,42.5151848 101.83463,42.4265435 C100.92387,42.1674674 100.324685,41.9304565 100.324685,40.8500217 C100.324685,39.7178478 101.131207,38.9775217 102.248924,38.9775217 C102.811207,38.9775217 103.499413,39.1551848 103.99588,39.4363261 L103.41838,40.5612717 Z" id="Fill-22" fill="#000000" mask="url(#mask-2)"></path>
                                    <path d="M24.4105598,22.6934674 C24.4113207,22.7079239 24.4120815,22.7223804 24.4128424,22.7372174 C24.4120815,22.7223804 24.4113207,22.7079239 24.4105598,22.6934674 L24.4105598,22.6934674 Z M104.772462,31.0892826 C104.17556,29.5199891 103.293332,27.7178696 101.76056,27.7178696 C101.552082,27.7178696 101.33219,27.7509674 101.086429,27.8217283 C99.0617554,28.5304783 96.9488207,28.8755326 94.6308315,28.8755326 C89.7194185,28.8755326 87.1229511,27.1106957 87.1229511,23.7723804 L87.030125,1.45303261 L87.030125,0.672 L86.7664837,0.588304348 C86.3141467,0.448304348 85.6019728,0.279391304 84.7615924,0.279391304 C83.5130054,0.279391304 82.3800707,0.643467391 81.3917011,1.36172826 L81.2361033,1.47433696 L81.2361033,21.0214565 L72.122788,21.0214565 L61.7616467,0.705097826 L61.696212,0.579554348 L61.5672446,0.527434783 C61.2183859,0.387054348 60.502788,0.150043478 59.613712,0.150043478 C57.4121359,0.150043478 55.5381141,1.59988043 54.2005054,4.3371087 L45.8773533,21.0214565 L35.7482772,21.0214565 L35.6809402,1.1368913 L35.652788,0.631673913 L35.3895272,0.549119565 C34.9383315,0.407597826 34.226538,0.239826087 33.3842554,0.239826087 C32.1364293,0.239826087 31.001212,0.603141304 30.0155054,1.32178261 L29.8591467,1.4343913 L29.8591467,21.0214565 L24.2005598,21.0214565 C23.4244728,17.4628696 20.5605598,15.6215652 14.3415924,14.3786848 L14.180288,14.3463478 C8.57838587,13.2415652 5.19784239,12.5750435 5.19784239,9.03738043 C5.19784239,4.7921087 10.6624076,4.7921087 12.459962,4.7921087 C14.2008315,4.7921087 16.0611576,4.98080435 17.5555054,5.3095 C19.7970272,5.83031522 20.7081685,3.80830435 21.3997989,1.89966304 L21.5413207,1.51047826 L21.1372989,1.40776087 C18.296212,0.68151087 15.6426793,0.328086957 13.0294728,0.328086957 C4.62795109,0.328086957 -3.80434783e-05,3.59526087 -3.80434783e-05,9.52852174 C-3.80434783e-05,12.4753696 1.14392935,14.6499348 3.49844022,16.1792826 C5.66197283,17.5697717 8.64267935,18.2317283 12.1008315,18.9983043 L12.5710489,19.1029239 C16.2962663,19.9250435 18.9878424,20.5200435 18.9878424,23.7891196 C18.9878424,25.3218913 18.2136576,28.8892283 11.0329511,28.8892283 C8.71572283,28.8892283 6.59061413,28.5411304 4.51458152,27.8164022 C4.32017935,27.762 4.10371196,27.7319457 3.90322283,27.7319457 C2.37958152,27.7319457 1.52664674,29.435913 0.890940217,31.1037391 L0.760070652,31.4510761 L1.10474457,31.5880326 C4.07936413,32.7590109 7.58545109,33.35325 11.5225707,33.35325 C16.7162663,33.35325 22.7861033,31.9985217 24.1453967,25.9964022 L29.8591467,25.9964022 L29.8591467,32.4162391 L35.787462,32.4162391 L35.7653967,25.9964022 L43.3957772,25.9964022 L40.2583315,32.2861304 L45.7727337,32.2861304 L58.5184402,6.2183587 L65.7995815,21.0286848 L55.1702337,21.0206957 L53.0028967,25.4402065 L52.6825707,26.0397717 L68.2240924,26.0135217 L71.3014293,32.2861304 L77.8681141,32.2861304 L74.6599076,25.9964022 L81.5244728,25.9964022 C82.8906141,31.9867283 88.9562663,33.3391739 94.141212,33.3391739 C98.0806141,33.3391739 101.584799,32.7456957 104.557897,31.5731957 L104.903712,31.4366196 L104.772462,31.0892826 Z" id="Fill-23" fill="#000000" mask="url(#mask-2)"></path>
                                </g>
                            </g>
                        </g>
                    </g>
                </g>
            </g>
        </g>
    </g>
</svg>

<svg width="105" height="46" viewbox="0 0 105 46" xmlns="http://www.w3.org/2000/svg" xmlns:xlink="http://www.w3.org/1999/xlink"><defs><path id="a" d="M0 44.891h104.903V.151H0z"/></defs><g fill="none" fill-rule="evenodd"><path fill="#000" d="M.938 44.937h1.45v-5.581H.938zM7.902 39.356v3.412h-.015L5.23 39.356H3.78v5.58h1.45v-3.419h.015l2.657 3.42h1.45v-5.581z"/><g transform="translate(0 .23)"><path d="M13.809 40.561a1.525 1.525 0 00-.963-.37c-.266 0-.621.156-.621.467 0 .325.392.451.643.533l.37.11c.778.23 1.377.622 1.377 1.525 0 .555-.133 1.125-.577 1.502-.437.37-1.022.526-1.584.526a3.446 3.446 0 01-1.961-.636l.622-1.17c.362.319.791.578 1.287.578.34 0 .703-.17.703-.563 0-.407-.57-.548-.88-.636-.91-.26-1.51-.497-1.51-1.577 0-1.132.807-1.872 1.924-1.872.563 0 1.25.177 1.747.458l-.577 1.125zM17.199 41.686h.244c.525 0 1.043 0 1.043-.68 0-.704-.48-.71-1.043-.71h-.244v1.39zm-1.451-2.56h2.22c1.2 0 2.028.555 2.028 1.835 0 1.317-.71 1.895-1.976 1.895h-.821v1.85h-1.451v-5.58z" fill="#000"/><mask id="b" fill="#fff"><use xlink:href="#a"/></mask><path fill="#000" mask="url(#b)" d="M21.084 44.706h1.451v-5.58h-1.45zM25.377 41.627h.141c.474 0 1.007-.089 1.007-.696 0-.606-.533-.695-1.007-.695h-.14v1.391zm3.19 3.08h-1.806l-1.369-2.147h-.015v2.146h-1.45v-5.58h2.168c1.103 0 1.94.525 1.94 1.717 0 .77-.43 1.435-1.222 1.576l1.754 2.287zM30.854 40.354v.933h1.636v1.228h-1.636v.962h1.725v1.23h-3.175v-5.581h3.175v1.228zM38.352 40.354v.933h1.591v1.228h-1.591v2.191h-1.45v-5.58h3.204v1.228zM42.586 41.82c0 .962.71 1.665 1.576 1.665.866 0 1.577-.703 1.577-1.665 0-.77-.711-1.473-1.577-1.473s-1.576.703-1.576 1.473m4.662-.008c0 1.806-1.295 3.08-3.086 3.08s-3.086-1.274-3.086-3.08c0-1.687 1.48-2.872 3.086-2.872 1.606 0 3.086 1.185 3.086 2.872M49.595 41.82c0 .962.71 1.665 1.576 1.665.866 0 1.577-.703 1.577-1.665 0-.77-.71-1.473-1.577-1.473-.865 0-1.576.703-1.576 1.473m4.662-.008c0 1.806-1.295 3.08-3.086 3.08-1.79 0-3.086-1.274-3.086-3.08 0-1.687 1.48-2.872 3.086-2.872 1.607 0 3.086 1.185 3.086 2.872M56.826 43.477h.325c.867 0 1.606-.473 1.606-1.561 0-1-.658-1.562-1.59-1.562h-.34v3.123zm-1.45-4.351h2.057c1.554 0 2.835 1.22 2.835 2.79 0 1.569-1.288 2.79-2.835 2.79h-2.058v-5.58zM65.819 43.596h.184c.43 0 1.155.022 1.155-.592 0-.674-.718-.607-1.191-.607h-.148v1.199zm0-2.28h.163c.384 0 .784-.066.784-.54 0-.51-.451-.54-.844-.54h-.103v1.08zm-1.45 3.39v-5.58h2.072c.991 0 1.657.385 1.657 1.45 0 .503-.163.91-.614 1.14v.015c.8.104 1.14.644 1.14 1.421 0 1.17-1 1.554-2.02 1.554h-2.236zM74.664 39.126v3.138c0 .718-.03 1.428-.585 1.969-.467.458-1.2.62-1.85.62-.652 0-1.385-.162-1.85-.62-.556-.54-.586-1.251-.586-1.97v-3.137h1.451v2.938c0 .725.052 1.517.984 1.517.933 0 .985-.792.985-1.517v-2.938h1.45zM79.09 40.561a1.525 1.525 0 00-.963-.37c-.266 0-.621.156-.621.467 0 .325.392.451.644.533l.37.11c.777.23 1.376.622 1.376 1.525 0 .555-.133 1.125-.577 1.502-.436.37-1.022.526-1.584.526a3.444 3.444 0 01-1.961-.636l.622-1.17c.362.319.792.578 1.287.578.34 0 .703-.17.703-.563 0-.407-.57-.548-.88-.636-.91-.26-1.51-.497-1.51-1.577 0-1.132.807-1.872 1.924-1.872.563 0 1.251.177 1.747.458l-.578 1.125zM81.03 44.706h1.45v-5.58h-1.45zM83.871 39.126h1.45l2.658 3.411h.015v-3.411h1.45v5.58h-1.45l-2.657-3.42h-.015v3.42H83.87zM92.287 40.354v.933h1.635v1.228h-1.635v.962h1.724v1.23h-3.175v-5.581h3.175v1.228zM98.415 40.561a1.525 1.525 0 00-.962-.37c-.267 0-.622.156-.622.467 0 .325.392.451.644.533l.37.11c.777.23 1.377.622 1.377 1.525 0 .555-.133 1.125-.577 1.502-.438.37-1.022.526-1.585.526a3.446 3.446 0 01-1.961-.636l.622-1.17c.362.319.792.578 1.288.578.34 0 .703-.17.703-.563 0-.407-.57-.548-.881-.636-.91-.26-1.51-.497-1.51-1.577 0-1.132.807-1.872 1.925-1.872.562 0 1.25.177 1.746.458l-.577 1.125zM103.418 40.561a1.526 1.526 0 00-.962-.37c-.266 0-.621.156-.621.467 0 .325.392.451.643.533l.37.11c.778.23 1.377.622 1.377 1.525 0 .555-.133 1.125-.578 1.502-.436.37-1.02.526-1.583.526a3.444 3.444 0 01-1.961-.636l.621-1.17c.363.319.792.578 1.288.578.34 0 .703-.17.703-.563 0-.407-.57-.548-.88-.636-.911-.26-1.51-.497-1.51-1.577 0-1.132.806-1.872 1.924-1.872.562 0 1.25.177 1.747.458l-.578 1.125zM24.41 22.693zm80.362 8.396c-.596-1.569-1.479-3.371-3.011-3.371-.209 0-.429.033-.675.104-2.024.708-4.137 1.054-6.455 1.054-4.912 0-7.508-1.765-7.508-5.104L87.03 1.453V.672l-.264-.084A6.86 6.86 0 0084.762.28a5.613 5.613 0 00-3.37 1.083l-.156.112v19.547h-9.113L61.762.705 61.696.58l-.129-.053A5.342 5.342 0 0059.614.15c-2.202 0-4.076 1.45-5.413 4.187l-8.324 16.684H35.748l-.067-19.884-.028-.505-.263-.083a6.793 6.793 0 00-2.006-.31c-1.248 0-2.383.364-3.368 1.083l-.157.112v19.587h-5.658c-.777-3.558-3.64-5.4-9.86-6.642l-.16-.033c-5.603-1.104-8.983-1.771-8.983-5.309 0-4.245 5.464-4.245 7.262-4.245 1.74 0 3.601.189 5.096.518 2.241.52 3.152-1.502 3.844-3.41l.141-.39-.404-.102C18.297.682 15.643.328 13.03.328 4.628.328 0 3.595 0 9.528c0 2.947 1.144 5.122 3.498 6.651 2.164 1.39 5.145 2.053 8.603 2.82l.47.104c3.725.822 6.417 1.417 6.417 4.686 0 1.533-.774 5.1-7.955 5.1-2.317 0-4.442-.348-6.518-1.073a2.33 2.33 0 00-.612-.084c-1.523 0-2.376 1.704-3.012 3.372l-.13.347.344.137c2.974 1.171 6.48 1.765 10.418 1.765 5.193 0 11.263-1.354 12.622-7.357h5.714v6.42h5.928l-.022-6.42h7.63l-3.137 6.29h5.515L58.518 6.218l7.282 14.81-10.63-.007-2.167 4.42-.32.599 15.541-.026 3.077 6.272h6.567l-3.208-6.29h6.864c1.367 5.99 7.432 7.343 12.617 7.343 3.94 0 7.444-.593 10.417-1.766l.346-.136-.132-.348z"/></g></g></svg>
